L2bis/link_with_measures.svg

<?xml version="1.0" encoding="UTF-8" standalone="no"?>
<!-- Created with Inkscape (http://www.inkscape.org/) -->

<svg
   width="297mm"
   height="210mm"
   viewBox="0 0 297 210"
   version="1.1"
   id="svg1701"
   sodipodi:docname="link_with_measures.svg"
   inkscape:version="1.2 (1:1.2.1+202207142221+cd75a1ee6d)"
   xmlns:inkscape="http://www.inkscape.org/namespaces/inkscape"
   xmlns:sodipodi="http://sodipodi.sourceforge.net/DTD/sodipodi-0.dtd"
   xmlns="http://www.w3.org/2000/svg"
   xmlns:svg="http://www.w3.org/2000/svg">
  <sodipodi:namedview
     id="namedview1703"
     pagecolor="#ffffff"
     bordercolor="#666666"
     borderopacity="1.0"
     inkscape:showpageshadow="2"
     inkscape:pageopacity="0.0"
     inkscape:pagecheckerboard="0"
     inkscape:deskcolor="#d1d1d1"
     inkscape:document-units="mm"
     showgrid="false"
     showguides="true"
     inkscape:zoom="1.1893044"
     inkscape:cx="585.21603"
     inkscape:cy="194.6516"
     inkscape:window-width="1864"
     inkscape:window-height="1016"
     inkscape:window-x="1976"
     inkscape:window-y="27"
     inkscape:window-maximized="1"
     inkscape:current-layer="layer1" />
  <defs
     id="defs1698">
    <marker
       style="overflow:visible"
       id="marker2748"
       refX="0"
       refY="0"
       orient="auto-start-reverse"
       inkscape:stockid="Arrow1L"
       markerWidth="8.75"
       markerHeight="5"
       viewBox="0 0 8.75 5"
       inkscape:isstock="true"
       inkscape:collect="always"
       preserveAspectRatio="xMidYMid">
      <path
         style="fill:context-stroke;fill-rule:evenodd;stroke:none"
         d="M 0,0 5,-5 -12.5,0 5,5 Z"
         id="path2746"
         transform="scale(-0.5)" />
    </marker>
    <marker
       style="overflow:visible"
       id="Arrow1L"
       refX="0"
       refY="0"
       orient="auto-start-reverse"
       inkscape:stockid="Arrow1L"
       markerWidth="8.75"
       markerHeight="5"
       viewBox="0 0 8.75 5"
       inkscape:isstock="true"
       inkscape:collect="always"
       preserveAspectRatio="xMidYMid">
      <path
         style="fill:context-stroke;fill-rule:evenodd;stroke:none"
         d="M 0,0 5,-5 -12.5,0 5,5 Z"
         id="arrow1L"
         transform="scale(-0.5)" />
    </marker>
    <marker
       style="overflow:visible"
       id="marker2748-6"
       refX="0"
       refY="0"
       orient="auto-start-reverse"
       inkscape:stockid="Arrow1L"
       markerWidth="8.75"
       markerHeight="5"
       viewBox="0 0 8.75 5"
       inkscape:isstock="true"
       inkscape:collect="always"
       preserveAspectRatio="xMidYMid">
      <path
         style="fill:context-stroke;fill-rule:evenodd;stroke:none"
         d="M 0,0 5,-5 -12.5,0 5,5 Z"
         id="path2746-0"
         transform="scale(-0.5)" />
    </marker>
    <marker
       style="overflow:visible"
       id="Arrow1L-6"
       refX="0"
       refY="0"
       orient="auto-start-reverse"
       inkscape:stockid="Arrow1L"
       markerWidth="8.75"
       markerHeight="5"
       viewBox="0 0 8.75 5"
       inkscape:isstock="true"
       inkscape:collect="always"
       preserveAspectRatio="xMidYMid">
      <path
         style="fill:context-stroke;fill-rule:evenodd;stroke:none"
         d="M 0,0 5,-5 -12.5,0 5,5 Z"
         id="arrow1L-2"
         transform="scale(-0.5)" />
    </marker>
  </defs>
  <g
     inkscape:label="Layer 1"
     inkscape:groupmode="layer"
     id="layer1"
     style="display:inline">
    <path
       id="path1789"
       style="fill:#afe9dd;stroke:#000000;stroke-width:0.600001"
       d="M 54.807507 50.230009 A 30.021444 30.021444 0 0 0 24.786084 80.251432 A 30.021444 30.021444 0 0 0 54.807507 110.27286 A 30.021444 30.021444 0 0 0 55.409538 110.25063 L 55.409538 110.27286 L 205.33217 110.27286 L 205.44844 110.27286 L 205.44844 110.26872 A 30.021444 30.021444 0 0 0 235.35359 80.251432 A 30.021444 30.021444 0 0 0 205.44844 50.231559 L 205.44844 50.230009 L 205.33217 50.230009 L 55.409538 50.230009 L 55.409538 50.23776 A 30.021444 30.021444 0 0 0 54.807507 50.230009 z M 55.588855 70.196232 A 9.9984446 9.9984446 0 0 1 65.587211 80.194588 A 9.9984446 9.9984446 0 0 1 55.588855 90.192944 A 9.9984446 9.9984446 0 0 1 45.590499 80.194588 A 9.9984446 9.9984446 0 0 1 55.588855 70.196232 z M 205.48203 70.196232 A 9.9984446 9.9984446 0 0 1 215.48039 80.194588 A 9.9984446 9.9984446 0 0 1 205.48203 90.192944 A 9.9984446 9.9984446 0 0 1 195.48368 80.194588 A 9.9984446 9.9984446 0 0 1 205.48203 70.196232 z " />
  </g>
  <g
     inkscape:groupmode="layer"
     id="layer2"
     inkscape:label="medidas"
     style="display:inline">
    <path
       style="fill:none;stroke:#000000;stroke-width:0.465;stroke-linecap:butt;stroke-linejoin:miter;stroke-dasharray:0.465, 1.395;stroke-dashoffset:0;stroke-opacity:1"
       d="m 205.44844,50.231558 47.89723,-0.301551"
       id="path1840" />
    <path
       style="fill:none;stroke:#000000;stroke-width:0.465;stroke-linecap:butt;stroke-linejoin:miter;stroke-dasharray:0.465, 1.395;stroke-dashoffset:0;stroke-opacity:1"
       d="m 205.44844,110.45363 47.89723,-0.30155"
       id="path1840-3" />
    <path
       style="fill:none;stroke:#000000;stroke-width:0.351189;stroke-linecap:butt;stroke-linejoin:miter;stroke-dasharray:none;stroke-opacity:1;marker-start:url(#marker2748);marker-end:url(#Arrow1L)"
       d="M 252.94723,52.538198 V 108.12328"
       id="path2349" />
    <path
       style="fill:none;stroke:#000000;stroke-width:0.298;stroke-linecap:butt;stroke-linejoin:miter;stroke-dasharray:none;stroke-opacity:1;marker-start:url(#marker2748-6);marker-end:url(#Arrow1L-6)"
       d="M 55.409327,71.393336 V 88.978879"
       id="path2349-6" />
    <path
       style="fill:none;stroke:#000000;stroke-width:0.465;stroke-linecap:butt;stroke-linejoin:miter;stroke-dasharray:0.465, 1.395;stroke-dashoffset:0;stroke-opacity:1"
       d="M 55.409327,70.19631 V 33.887679"
       id="path2961" />
    <path
       style="fill:none;stroke:#000000;stroke-width:0.465;stroke-linecap:butt;stroke-linejoin:miter;stroke-dasharray:0.465, 1.395;stroke-dashoffset:0;stroke-opacity:1"
       d="M 205.44844,80.33074 V 33.887679"
       id="path4538" />
    <path
       style="fill:none;stroke:#000000;stroke-width:0.456633;stroke-linecap:butt;stroke-linejoin:miter;stroke-dasharray:none;stroke-opacity:1;marker-start:url(#Arrow1L-6);marker-end:url(#Arrow1L-6)"
       d="M 57.725457,33.887679 H 202.4138"
       id="path4553" />
    <text
       xml:space="preserve"
       style="font-style:normal;font-weight:normal;font-size:10.5833px;line-height:1.25;font-family:sans-serif;letter-spacing:0px;word-spacing:0px;fill:#000000;fill-opacity:1;stroke:none;stroke-width:0.264583"
       x="109.52831"
       y="30.151342"
       id="text4639"><tspan
         sodipodi:role="line"
         id="tspan4637"
         style="stroke-width:0.264583"
         x="109.52831"
         y="30.151342">150mm</tspan></text>
    <text
       xml:space="preserve"
       style="font-style:normal;font-weight:normal;font-size:10.5833px;line-height:1.25;font-family:sans-serif;letter-spacing:0px;word-spacing:0px;fill:#000000;fill-opacity:1;stroke:none;stroke-width:0.264583"
       x="66.764099"
       y="84.047218"
       id="text4643"><tspan
         sodipodi:role="line"
         id="tspan4641"
         style="stroke-width:0.264583"
         x="66.764099"
         y="84.047218">20mm</tspan></text>
    <text
       xml:space="preserve"
       style="font-style:normal;font-weight:normal;font-size:10.5833px;line-height:1.25;font-family:sans-serif;letter-spacing:0px;word-spacing:0px;fill:#000000;fill-opacity:1;stroke:none;stroke-width:0.264583"
       x="256.74924"
       y="73.748779"
       id="text4647"><tspan
         sodipodi:role="line"
         id="tspan4645"
         style="stroke-width:0.264583"
         x="256.74924"
         y="73.748779">60mm</tspan></text>
  </g>
</svg>

<?xml version="1.0" encoding="UTF-8" standalone="no"?>
<!-- Created with Inkscape (http://www.inkscape.org/) -->

<svg
   width="297mm"
   height="210mm"
   viewBox="0 0 297 210"
   version="1.1"
   id="svg1701"
   sodipodi:docname="link_with_measures.svg"
   inkscape:version="1.2 (1:1.2.1+202207142221+cd75a1ee6d)"
   xmlns:inkscape="http://www.inkscape.org/namespaces/inkscape"
   xmlns:sodipodi="http://sodipodi.sourceforge.net/DTD/sodipodi-0.dtd"
   xmlns="http://www.w3.org/2000/svg"
   xmlns:svg="http://www.w3.org/2000/svg">
  <sodipodi:namedview
     id="namedview1703"
     pagecolor="#ffffff"
     bordercolor="#666666"
     borderopacity="1.0"
     inkscape:showpageshadow="2"
     inkscape:pageopacity="0.0"
     inkscape:pagecheckerboard="0"
     inkscape:deskcolor="#d1d1d1"
     inkscape:document-units="mm"
     showgrid="false"
     showguides="true"
     inkscape:zoom="1.1893044"
     inkscape:cx="585.21603"
     inkscape:cy="194.6516"
     inkscape:window-width="1864"
     inkscape:window-height="1016"
     inkscape:window-x="1976"
     inkscape:window-y="27"
     inkscape:window-maximized="1"
     inkscape:current-layer="layer1" />
  <defs
     id="defs1698">
    <marker
       style="overflow:visible"
       id="marker2748"
       refX="0"
       refY="0"
       orient="auto-start-reverse"
       inkscape:stockid="Arrow1L"
       markerWidth="8.75"
       markerHeight="5"
       viewBox="0 0 8.75 5"
       inkscape:isstock="true"
       inkscape:collect="always"
       preserveAspectRatio="xMidYMid">
      <path
         style="fill:context-stroke;fill-rule:evenodd;stroke:none"
         d="M 0,0 5,-5 -12.5,0 5,5 Z"
         id="path2746"
         transform="scale(-0.5)" />
    </marker>
    <marker
       style="overflow:visible"
       id="Arrow1L"
       refX="0"
       refY="0"
       orient="auto-start-reverse"
       inkscape:stockid="Arrow1L"
       markerWidth="8.75"
       markerHeight="5"
       viewBox="0 0 8.75 5"
       inkscape:isstock="true"
       inkscape:collect="always"
       preserveAspectRatio="xMidYMid">
      <path
         style="fill:context-stroke;fill-rule:evenodd;stroke:none"
         d="M 0,0 5,-5 -12.5,0 5,5 Z"
         id="arrow1L"
         transform="scale(-0.5)" />
    </marker>
    <marker
       style="overflow:visible"
       id="marker2748-6"
       refX="0"
       refY="0"
       orient="auto-start-reverse"
       inkscape:stockid="Arrow1L"
       markerWidth="8.75"
       markerHeight="5"
       viewBox="0 0 8.75 5"
       inkscape:isstock="true"
       inkscape:collect="always"
       preserveAspectRatio="xMidYMid">
      <path
         style="fill:context-stroke;fill-rule:evenodd;stroke:none"
         d="M 0,0 5,-5 -12.5,0 5,5 Z"
         id="path2746-0"
         transform="scale(-0.5)" />
    </marker>
    <marker
       style="overflow:visible"
       id="Arrow1L-6"
       refX="0"
       refY="0"
       orient="auto-start-reverse"
       inkscape:stockid="Arrow1L"
       markerWidth="8.75"
       markerHeight="5"
       viewBox="0 0 8.75 5"
       inkscape:isstock="true"
       inkscape:collect="always"
       preserveAspectRatio="xMidYMid">
      <path
         style="fill:context-stroke;fill-rule:evenodd;stroke:none"
         d="M 0,0 5,-5 -12.5,0 5,5 Z"
         id="arrow1L-2"
         transform="scale(-0.5)" />
    </marker>
  </defs>
  <g
     inkscape:label="Layer 1"
     inkscape:groupmode="layer"
     id="layer1"
     style="display:inline">
    <g
       id="g4804">
      <path
         id="path1789"
         style="fill:#afe9dd;stroke:#000000;stroke-width:0.600001"
         d="m 54.807296,50.230051 a 30.021444,30.021444 0 0 0 -30.021423,30.021423 30.021444,30.021444 0 0 0 30.021423,30.021426 30.021444,30.021444 0 0 0 0.602031,-0.0222 v 0.0222 h 149.922633 0.11627 v -0.004 A 30.021444,30.021444 0 0 0 235.35338,80.251474 30.021444,30.021444 0 0 0 205.44823,50.231601 v -0.0015 H 205.33196 55.409327 v 0.0078 a 30.021444,30.021444 0 0 0 -0.602031,-0.0078 z" />
      <circle
         style="fill:#ffffff;stroke:#000000;stroke-width:0.600001"
         id="path1800"
         cx="55.58873"
         cy="80.194756"
         r="9.9984446" />
      <circle
         style="fill:#ffffff;stroke:#000000;stroke-width:0.600001"
         id="path1833"
         cx="205.48199"
         cy="80.194756"
         r="9.9984446" />
    </g>
  </g>
  <g
     inkscape:groupmode="layer"
     id="layer2"
     inkscape:label="medidas"
     style="display:inline">
    <path
       style="fill:none;stroke:#000000;stroke-width:0.465;stroke-linecap:butt;stroke-linejoin:miter;stroke-dasharray:0.465, 1.395;stroke-dashoffset:0;stroke-opacity:1"
       d="m 205.44844,50.231558 47.89723,-0.301551"
       id="path1840" />
    <path
       style="fill:none;stroke:#000000;stroke-width:0.465;stroke-linecap:butt;stroke-linejoin:miter;stroke-dasharray:0.465, 1.395;stroke-dashoffset:0;stroke-opacity:1"
       d="m 205.44844,110.45363 47.89723,-0.30155"
       id="path1840-3" />
    <path
       style="fill:none;stroke:#000000;stroke-width:0.351189;stroke-linecap:butt;stroke-linejoin:miter;stroke-dasharray:none;stroke-opacity:1;marker-start:url(#marker2748);marker-end:url(#Arrow1L)"
       d="M 252.94723,52.538198 V 108.12328"
       id="path2349" />
    <path
       style="fill:none;stroke:#000000;stroke-width:0.298;stroke-linecap:butt;stroke-linejoin:miter;stroke-dasharray:none;stroke-opacity:1;marker-start:url(#marker2748-6);marker-end:url(#Arrow1L-6)"
       d="M 55.409327,71.393336 V 88.978879"
       id="path2349-6" />
    <path
       style="fill:none;stroke:#000000;stroke-width:0.465;stroke-linecap:butt;stroke-linejoin:miter;stroke-dasharray:0.465, 1.395;stroke-dashoffset:0;stroke-opacity:1"
       d="M 55.409327,70.19631 V 33.887679"
       id="path2961" />
    <path
       style="fill:none;stroke:#000000;stroke-width:0.465;stroke-linecap:butt;stroke-linejoin:miter;stroke-dasharray:0.465, 1.395;stroke-dashoffset:0;stroke-opacity:1"
       d="M 205.44844,80.33074 V 33.887679"
       id="path4538" />
    <path
       style="fill:none;stroke:#000000;stroke-width:0.456633;stroke-linecap:butt;stroke-linejoin:miter;stroke-dasharray:none;stroke-opacity:1;marker-start:url(#Arrow1L-6);marker-end:url(#Arrow1L-6)"
       d="M 57.725457,33.887679 H 202.4138"
       id="path4553" />
    <text
       xml:space="preserve"
       style="font-style:normal;font-weight:normal;font-size:10.5833px;line-height:1.25;font-family:sans-serif;letter-spacing:0px;word-spacing:0px;fill:#000000;fill-opacity:1;stroke:none;stroke-width:0.264583"
       x="109.52831"
       y="30.151342"
       id="text4639"><tspan
         sodipodi:role="line"
         id="tspan4637"
         style="stroke-width:0.264583"
         x="109.52831"
         y="30.151342">150mm</tspan></text>
    <text
       xml:space="preserve"
       style="font-style:normal;font-weight:normal;font-size:10.5833px;line-height:1.25;font-family:sans-serif;letter-spacing:0px;word-spacing:0px;fill:#000000;fill-opacity:1;stroke:none;stroke-width:0.264583"
       x="66.764099"
       y="84.047218"
       id="text4643"><tspan
         sodipodi:role="line"
         id="tspan4641"
         style="stroke-width:0.264583"
         x="66.764099"
         y="84.047218">20mm</tspan></text>
    <text
       xml:space="preserve"
       style="font-style:normal;font-weight:normal;font-size:10.5833px;line-height:1.25;font-family:sans-serif;letter-spacing:0px;word-spacing:0px;fill:#000000;fill-opacity:1;stroke:none;stroke-width:0.264583"
       x="256.74924"
       y="73.748779"
       id="text4647"><tspan
         sodipodi:role="line"
         id="tspan4645"
         style="stroke-width:0.264583"
         x="256.74924"
         y="73.748779">60mm</tspan></text>
  </g>
</svg>
